static/img/kroki/bb08a9c58065dadc278afe046e08b0f9.svg

<?xml version="1.0" encoding="us-ascii" standalone="no"?><svg xmlns="http://www.w3.org/2000/svg" xmlns:xlink="http://www.w3.org/1999/xlink" contentStyleType="text/css" height="152px" preserveAspectRatio="none" style="width:1239px;height:152px;" version="1.1" viewBox="0 0 1239 152" width="1239px" zoomAndPan="magnify"><defs/><g><!--class azure_compute_virtual_machine--><g id="elem_azure_compute_virtual_machine"><rect codeLine="23" fill="#3D176E" height="39.7891" id="azure_compute_virtual_machine" rx="2.5" ry="2.5" style="stroke:#000D19;stroke-width:0.5;" width="315" x="7" y="7"/><ellipse cx="22" cy="26.8945" fill="#ADD1B2" rx="11" ry="11" style="stroke:#181818;stroke-width:1.0;"/><path d="M24.9688,32.5352 Q24.3906,32.832 23.75,32.9727 Q23.1094,33.1289 22.4063,33.1289 Q19.9063,33.1289 18.5781,31.4883 Q17.2656,29.832 17.2656,26.707 Q17.2656,23.582 18.5781,21.9258 Q19.9063,20.2695 22.4063,20.2695 Q23.1094,20.2695 23.75,20.4258 Q24.4063,20.582 24.9688,20.8789 L24.9688,23.5977 Q24.3438,23.0195 23.75,22.7539 Q23.1563,22.4727 22.5313,22.4727 Q21.1875,22.4727 20.5,23.5508 Q19.8125,24.6133 19.8125,26.707 Q19.8125,28.8008 20.5,29.8789 Q21.1875,30.9414 22.5313,30.9414 Q23.1563,30.9414 23.75,30.6758 Q24.3438,30.3945 24.9688,29.8164 L24.9688,32.5352 Z " fill="#000000"/><text fill="#D9B8FF" font-family="Helvetica" font-size="17" lengthAdjust="spacing" textLength="273" x="41" y="32.7798">azure_compute_virtual_machine</text></g><!--class azure_compute_virtual_machine_base--><g id="elem_azure_compute_virtual_machine_base"><rect codeLine="26" fill="#3D176E" height="39.7891" id="azure_compute_virtual_machine_base" rx="2.5" ry="2.5" style="stroke:#000D19;stroke-width:0.5;" width="362" x="357.5" y="7"/><ellipse cx="372.5" cy="26.8945" fill="#ADD1B2" rx="11" ry="11" style="stroke:#181818;stroke-width:1.0;"/><path d="M375.4688,32.5352 Q374.8906,32.832 374.25,32.9727 Q373.6094,33.1289 372.9063,33.1289 Q370.4063,33.1289 369.0781,31.4883 Q367.7656,29.832 367.7656,26.707 Q367.7656,23.582 369.0781,21.9258 Q370.4063,20.2695 372.9063,20.2695 Q373.6094,20.2695 374.25,20.4258 Q374.9063,20.582 375.4688,20.8789 L375.4688,23.5977 Q374.8438,23.0195 374.25,22.7539 Q373.6563,22.4727 373.0313,22.4727 Q371.6875,22.4727 371,23.5508 Q370.3125,24.6133 370.3125,26.707 Q370.3125,28.8008 371,29.8789 Q371.6875,30.9414 373.0313,30.9414 Q373.6563,30.9414 374.25,30.6758 Q374.8438,30.3945 375.4688,29.8164 L375.4688,32.5352 Z " fill="#000000"/><text fill="#D9B8FF" font-family="Helvetica" font-size="17" lengthAdjust="spacing" textLength="320" x="391.5" y="32.7798">azure_compute_virtual_machine_base</text></g><!--class azure_compute_virtual_machine_scale_set_instance--><g id="elem_azure_compute_virtual_machine_scale_set_instance"><rect codeLine="29" fill="#3D176E" height="39.7891" id="azure_compute_virtual_machine_scale_set_instance" rx="2.5" ry="2.5" style="stroke:#000D19;stroke-width:0.5;" width="478" x="754.5" y="7"/><ellipse cx="769.5" cy="26.8945" fill="#ADD1B2" rx="11" ry="11" style="stroke:#181818;stroke-width:1.0;"/><path d="M772.4688,32.5352 Q771.8906,32.832 771.25,32.9727 Q770.6094,33.1289 769.9063,33.1289 Q767.4063,33.1289 766.0781,31.4883 Q764.7656,29.832 764.7656,26.707 Q764.7656,23.582 766.0781,21.9258 Q767.4063,20.2695 769.9063,20.2695 Q770.6094,20.2695 771.25,20.4258 Q771.9063,20.582 772.4688,20.8789 L772.4688,23.5977 Q771.8438,23.0195 771.25,22.7539 Q770.6563,22.4727 770.0313,22.4727 Q768.6875,22.4727 768,23.5508 Q767.3125,24.6133 767.3125,26.707 Q767.3125,28.8008 768,29.8789 Q768.6875,30.9414 770.0313,30.9414 Q770.6563,30.9414 771.25,30.6758 Q771.8438,30.3945 772.4688,29.8164 L772.4688,32.5352 Z " fill="#000000"/><text fill="#D9B8FF" font-family="Helvetica" font-size="17" lengthAdjust="spacing" textLength="436" x="788.5" y="32.7798">azure_compute_virtual_machine_scale_set_instance</text></g><!--class azure_compute_virtual_machine_size--><g id="elem_azure_compute_virtual_machine_size"><rect codeLine="32" fill="#3D176E" height="39.7891" id="azure_compute_virtual_machine_size" rx="2.5" ry="2.5" style="stroke:#000D19;stroke-width:0.5;" width="355" x="361" y="106.79"/><ellipse cx="376" cy="126.6845" fill="#ADD1B2" rx="11" ry="11" style="stroke:#181818;stroke-width:1.0;"/><path d="M378.9688,132.3252 Q378.3906,132.622 377.75,132.7627 Q377.1094,132.9189 376.4063,132.9189 Q373.9063,132.9189 372.5781,131.2783 Q371.2656,129.622 371.2656,126.497 Q371.2656,123.372 372.5781,121.7158 Q373.9063,120.0595 376.4063,120.0595 Q377.1094,120.0595 377.75,120.2158 Q378.4063,120.372 378.9688,120.6689 L378.9688,123.3877 Q378.3438,122.8095 377.75,122.5439 Q377.1563,122.2627 376.5313,122.2627 Q375.1875,122.2627 374.5,123.3408 Q373.8125,124.4033 373.8125,126.497 Q373.8125,128.5908 374.5,129.6689 Q375.1875,130.7314 376.5313,130.7314 Q377.1563,130.7314 377.75,130.4658 Q378.3438,130.1845 378.9688,129.6064 L378.9688,132.3252 Z " fill="#000000"/><text fill="#D9B8FF" font-family="Helvetica" font-size="17" lengthAdjust="spacing" textLength="313" x="395" y="132.5698">azure_compute_virtual_machine_size</text></g><!--link azure_compute_virtual_machine to azure_compute_virtual_machine_size--><g id="link_azure_compute_virtual_machine_azure_compute_virtual_machine_size"><path codeLine="35" d="M238.39,47.22 C303.85,64.33 393.1252,87.6721 458.6352,104.8021 " fill="none" id="azure_compute_virtual_machine-to-azure_compute_virtual_machine_size" style="stroke:#1A83AF;stroke-width:2.0;"/><polygon fill="#1A83AF" points="464.44,106.32,456.7447,100.1733,459.6026,105.0551,454.7208,107.9131,464.44,106.32" style="stroke:#1A83AF;stroke-width:2.0;"/></g><!--link azure_compute_virtual_machine_base to azure_compute_virtual_machine_size--><g id="link_azure_compute_virtual_machine_base_azure_compute_virtual_machine_size"><path codeLine="36" d="M538.5,47.22 C538.5,64.36 538.5,83.27 538.5,100.41 " fill="none" id="azure_compute_virtual_machine_base-to-azure_compute_virtual_machine_size" style="stroke:#1A83AF;stroke-width:2.0;"/><polygon fill="#1A83AF" points="538.5,106.41,542.5,97.41,538.5,101.41,534.5,97.41,538.5,106.41" style="stroke:#1A83AF;stroke-width:2.0;"/></g><!--link azure_compute_virtual_machine_scale_set_instance to azure_compute_virtual_machine_size--><g id="link_azure_compute_virtual_machine_scale_set_instance_azure_compute_virtual_machine_size"><path codeLine="37" d="M903.33,47.27 C823.67,64.4 713.966,87.9793 634.356,105.0893 " fill="none" id="azure_compute_virtual_machine_scale_set_instance-to-azure_compute_virtual_machine_size" style="stroke:#1A83AF;stroke-width:2.0;"/><polygon fill="#1A83AF" points="628.49,106.35,638.1296,108.3696,633.3784,105.2994,636.4486,100.5482,628.49,106.35" style="stroke:#1A83AF;stroke-width:2.0;"/></g><!--SRC=[hP5FQm8n4CNl-oa2dWMtqggNmbQGzYAbzbRACfjCtE0cMIPPHKk_UrrjIxhhN-WbXvbVthmtaok137NfrqoZpf1Sv1RAb42WMK9aLsDRM68TAK7s1ytcn1f_5fY2HlQ8nHAzuj0aNdF55mQTOpT1wm7uOawsCc8lxmcCsxRG-80Q5-1SuZsfhF8Oc16ZR2XbasoATleY7jnX2xCaaBwHNgydub4JEJlgPEvVOgOsoE9mQLFhiMMpDM97dNHP4u79Lj2V_b6Fpo24CdDs6zHUzfx88Fsfpt8GTbNJ4WeNZd4U2QrVbpXkfSBHKCZ1GVZf61pnUdKCDXLXogqkjsTFbufy1KMgWUVA8Fk8eizBm3G3TmNjE1JR5tsgZFDW-3L_wqFlwDFMks-TE1dsaybxz_u2oUY2VFyhUM09rmxu0W00]--></g></svg>

<svg xmlns="http://www.w3.org/2000/svg" width="1239" height="152" viewBox="0 0 1239 152"><rect width="315" height="39.789" x="7" y="7" fill="#3D176E" rx="2.5" ry="2.5" style="stroke:#000d19;stroke-width:.5"/><circle cx="22" cy="26.895" r="11" fill="#ADD1B2" style="stroke:#181818;stroke-width:1"/><path d="M24.969 32.535q-.578.297-1.219.438-.64.156-1.344.156-2.5 0-3.828-1.64-1.312-1.657-1.312-4.782t1.312-4.781q1.328-1.656 3.828-1.656.703 0 1.344.156.656.156 1.219.453v2.719q-.625-.578-1.219-.844-.594-.281-1.219-.281-1.343 0-2.031 1.078-.687 1.062-.687 3.156t.687 3.172q.688 1.062 2.031 1.062.625 0 1.219-.265.594-.281 1.219-.86z"/><text x="41" y="32.78" fill="#D9B8FF" font-family="Helvetica" font-size="17" textLength="273">azure_compute_virtual_machine</text><rect width="362" height="39.789" x="357.5" y="7" fill="#3D176E" rx="2.5" ry="2.5" style="stroke:#000d19;stroke-width:.5"/><circle cx="372.5" cy="26.895" r="11" fill="#ADD1B2" style="stroke:#181818;stroke-width:1"/><path d="M375.469 32.535q-.578.297-1.219.438-.64.156-1.344.156-2.5 0-3.828-1.64-1.312-1.657-1.312-4.782t1.312-4.781q1.328-1.656 3.828-1.656.703 0 1.344.156.656.156 1.219.453v2.719q-.625-.578-1.219-.844-.594-.281-1.219-.281-1.344 0-2.031 1.078-.687 1.062-.687 3.156t.687 3.172q.688 1.062 2.031 1.062.625 0 1.219-.265.594-.281 1.219-.86z"/><text x="391.5" y="32.78" fill="#D9B8FF" font-family="Helvetica" font-size="17" textLength="320">azure_compute_virtual_machine_base</text><rect width="478" height="39.789" x="754.5" y="7" fill="#3D176E" rx="2.5" ry="2.5" style="stroke:#000d19;stroke-width:.5"/><circle cx="769.5" cy="26.895" r="11" fill="#ADD1B2" style="stroke:#181818;stroke-width:1"/><path d="M772.469 32.535q-.578.297-1.219.438-.64.156-1.344.156-2.5 0-3.828-1.64-1.312-1.657-1.312-4.782t1.312-4.781q1.328-1.656 3.828-1.656.703 0 1.344.156.656.156 1.219.453v2.719q-.625-.578-1.219-.844-.594-.281-1.219-.281-1.343 0-2.031 1.078-.687 1.062-.687 3.156t.687 3.172q.688 1.062 2.031 1.062.625 0 1.219-.265.594-.281 1.219-.86z"/><text x="788.5" y="32.78" fill="#D9B8FF" font-family="Helvetica" font-size="17" textLength="436">azure_compute_virtual_machine_scale_set_instance</text><rect width="355" height="39.789" x="361" y="106.79" fill="#3D176E" rx="2.5" ry="2.5" style="stroke:#000d19;stroke-width:.5"/><circle cx="376" cy="126.684" r="11" fill="#ADD1B2" style="stroke:#181818;stroke-width:1"/><path d="M378.969 132.325q-.578.297-1.219.438-.64.156-1.344.156-2.5 0-3.828-1.64-1.312-1.657-1.312-4.782t1.312-4.781q1.328-1.656 3.828-1.656.703 0 1.344.156.656.156 1.219.453v2.719q-.625-.579-1.219-.844-.594-.281-1.219-.281-1.344 0-2.031 1.078-.687 1.062-.687 3.156t.687 3.172q.688 1.062 2.031 1.062.625 0 1.219-.265.594-.281 1.219-.86z"/><text x="395" y="132.57" fill="#D9B8FF" font-family="Helvetica" font-size="17" textLength="313">azure_compute_virtual_machine_size</text><path fill="none" d="M238.39 47.22c65.46 17.11 154.735 40.452 220.245 57.582" style="stroke:#1a83af;stroke-width:2"/><path fill="#1A83AF" d="m464.44 106.32-7.695-6.147 2.858 4.882-4.882 2.858z" style="stroke:#1a83af;stroke-width:2"/><path fill="none" d="M538.5 47.22v53.19" style="stroke:#1a83af;stroke-width:2"/><path fill="#1A83AF" d="m538.5 106.41 4-9-4 4-4-4z" style="stroke:#1a83af;stroke-width:2"/><path fill="none" d="M903.33 47.27c-79.66 17.13-189.364 40.71-268.974 57.82" style="stroke:#1a83af;stroke-width:2"/><path fill="#1A83AF" d="m628.49 106.35 9.64 2.02-4.752-3.07 3.07-4.752z" style="stroke:#1a83af;stroke-width:2"/></svg>
